public/images/arrow.svg

<svg fill="none" height="24" viewBox="0 0 24 24" width="24" xmlns="http://www.w3.org/2000/svg"><path d="m24 1.8v18c0 1.05-.8237 1.8-1.7972 1.8-1.0484 0-1.7972-.75-1.7972-1.8v-13.65l-17.29796 17.325c-.37441.375-.82371.525-1.27301.525-.52418 0-.973476-.15-1.273008-.525-.748829-.675-.748829-1.8 0-2.475l17.297978-17.4h-13.62871c-1.04836 0-1.79719-.75-1.79719-1.8 0-.975.74883-1.8 1.79719-1.8h17.97191c.9735 0 1.7972.825 1.7972 1.8z" fill="#0a0e29"/></svg>

<svg width="24" height="24" viewBox="0 0 24 24" fill="none" xmlns="http://www.w3.org/2000/svg">
<path d="M24 1.8V19.8C24 20.85 23.1763 21.6 22.2028 21.6C21.1544 21.6 20.4056 20.85 20.4056 19.8V6.15L3.10764 23.475C2.73323 23.85 2.28393 24 1.83463 24C1.31045 24 0.861154 23.85 0.561622 23.475C-0.187207 22.8 -0.187207 21.675 0.561622 21L17.8596 3.6H4.23089C3.18253 3.6 2.4337 2.85 2.4337 1.8C2.4337 0.825 3.18253 0 4.23089 0H22.2028C23.1763 0 24 0.825 24 1.8Z" fill="#0A0E29"/>
</svg>
